X:1
T:Rochester Schottische [2]
T:Rochester Schottische [2]
T:William Rulison, 1852
C:William Rulison, 1852
L:1/8
M:2/4
K:D
V:1 treble 
V:1
 [DF]A/>B/ A[Af] | [DF]A/>B/ A[Aa] | g/>(g/f/>)(f/ e/>)(e/d/>)d/ | c/>(c/B/>)(B/ A/>)(A/G/>)G/ | %4
 [DF]A/>B/ A[Af] | [DF]A/>B/ A[Aa] | g/>(g/f/>)(f/ e/8) x63/64 (A/4B/4)c/ z/64 | [Fd][Fd] [Fd] :| %8
 [ce][ce] [ca]2 | [Ac][Ac] [ce]2 | (B/e/).e/.e/ (c/e/).e/.e/ | (B/e/).e/.e/ (A/e/).e/.e/ | %12
 [ce][ce] [ca]2 | [Ac][Ac] [ce]a |{a} ^g/>f/e/>d/ c/>B/A3/4^G/ | AAA=G || [DF]A/>B/ A[Af] | %17
 [DF]A/>B/ A[Aa] | g/>(g/f/>)(f/ e/>)(e/d/>)d/ | c/>(c/B/>)(B/ A/>)(A/G/>)G/ | [DF]A/>B/ A[Af] | %21
 [DF]A/>B/ A[Aa] | g/>(g/f/>)(f/ e/8) x63/64 (A/4B/4)c/ z/64 | [Fd][Fd] [Fd]!fine! || %24
[K:G] B(3d/e/d/ B(3d/e/d/ | bg/>d/ B2 | c/>(c/a/>)d/ c/>(c/a/>)d/ | B/>(B/g/>)d/ B z | %28
 Td2 [dd'][dd'] | Te2 [ee'][ee'] | [dd'][dd']/>[dd']/ [dd']/[dc']/[ce]/[cf]/ | %31
 [Bg][Bg] [Bg] z!D.C.! || %32

